X: 13550
T: Flowing Tide, The
R: hornpipe
M: 4/4
K: Gmajor
|:D|G3 B dGBd|GBdg bgag|(3efg dg Bdge|dBAG edBA|
G3 B dGBd|GBdg bgag|(3efg dg Bdge|dBAB G3:|
|:D|GFGB AGED|g3e dBAG|(3Bcd Gd ABGB|cABG AG (3EFG|
DGBd B3 d|cABG AG (3EFG|DGBd gdBG|DGFA G3:|

